X:9
T:Cadger o' Crief
M:C|
L:1/8
K:D
d|TA>FAf Te>dBd| AFAB         d/B/d/e/ dB|TA>FAf Te>dBg| f/g/a/B/ AB ({AB}d2) d:|
g|Tf>edf Te>dBg|Tf>e d/e/f/g/ a>bag      | fdaf  Te>dBg|(f/g/a)   AB ({AB}d2) d:|

% @@@@@@@@@@@@@@@@@@@@@@@@@@@@@@@@@@

%% 10. ===============================================================================

% =================
% @DOWN ON YON BANK.@
% =================
%
% *SETT and cast off one pair, sett again; the Man casts off, and the Woman up.
% *The Man figures round the 2d Woman, and the Woman round the first Man; meet
% in the middle, and sett; change the Partners and figure as before.  *SETT to your
% Partner and turn 2d Woman, the Woman turning 1st Man at the same time, sett as
% before, the Man turning 1st Woman, the Woman the 2d Man at the same time.  *Lead
% out at both sides.

% @@@@@@@@@@@@@@@@@@@@@@@@@@@@@@@@@@

